packages/icons/src/assets/raw/outlined/action/SVG/outlined-action-autofilter.svg

<svg xmlns="http://www.w3.org/2000/svg" viewBox="0 0 24 24"><path d="M10.63 20.12a1 1 0 0 1-.79-.41 1 1 0 0 1-.18-.53v-5.45L4.67 7a1 1 0 0 1-.12-.81A1 1 0 0 1 5 5.62a1.11 1.11 0 0 1 .44-.12h13.11a1 1 0 0 1 .69.3.93.93 0 0 1 .26.69.87.87 0 0 1-.17.52l-4.83 6.75v3.44a.84.84 0 0 1-.5.8l-2.83 2a1 1 0 0 1-.54.12zM5.51 6.5l5 6.67a.82.82 0 0 1 .2.55v5.45l2.84-2v-3.44a.78.78 0 0 1 .13-.45l.06-.11 4.82-6.73zm8 10.72z"/></svg>

<svg xmlns="http://www.w3.org/2000/svg" xmlns:xlink="http://www.w3.org/1999/xlink" viewBox="0 0 24 24">
  <defs>
    <clipPath id="a">
      <rect width="24" height="24"/>
    </clipPath>
  </defs>
  <title>outlined-action-autofilter</title>
  <g>
    <g style="opacity: 0">
      <g>
        <rect width="24" height="24"/>
        <g style="clip-path: url(#a)">
          <g>
            <rect width="24" height="24"/>
            <path d="M12,21.5A9.5,9.5,0,1,1,21.5,12,9.51,9.51,0,0,1,12,21.5Zm0-18A8.5,8.5,0,1,0,20.5,12,8.51,8.51,0,0,0,12,3.5Z"/>
          </g>
        </g>
      </g>
    </g>
    <path d="M10.63,20.12a1,1,0,0,1-.79-.41,1,1,0,0,1-.18-.53V13.73L4.67,7a1,1,0,0,1-.12-.81A1,1,0,0,1,5,5.62a1.11,1.11,0,0,1,.44-.12H18.55a1,1,0,0,1,.69.3.93.93,0,0,1,.26.69.87.87,0,0,1-.17.52L14.5,13.76V17.2A.84.84,0,0,1,14,18L11.17,20A1,1,0,0,1,10.63,20.12ZM5.51,6.5l5,6.67a.82.82,0,0,1,.2.55v5.45l2.84-2V13.73a.78.78,0,0,1,.13-.45l.06-.11,4.82-6.73Zm8,10.72v0Z"/>
  </g>
</svg>
